svgs/yahoo_auctions.svg

<svg width="192" height="192" viewBox="0 0 192 192" fill="none" xmlns="http://www.w3.org/2000/svg">
<path d="M84 91.0411V57C84 53.6863 86.6863 51 90 51H164C167.314 51 170 53.6863 170 57V156C170 159.314 167.314 162 164 162H90C86.6863 162 84 159.314 84 156V133.616" stroke="black" stroke-width="12" stroke-linecap="round"/>
<path d="M30 50.0625H69.5M49.5 30V96" stroke="black" stroke-width="12" stroke-linecap="round" stroke-linejoin="round"/>
<path d="M50 145V162" stroke="black" stroke-width="12" stroke-linecap="round"/>
<circle cx="124" cy="102" r="24" stroke="black" stroke-width="12"/>
<path d="M100 110L23 130" stroke="black" stroke-width="14" stroke-linecap="round"/>
<path d="M127 50L127 31" stroke="black" stroke-width="14" stroke-linecap="round"/>
</svg>

<svg xmlns="http://www.w3.org/2000/svg" width="192" height="192" fill="none" viewBox="0 0 192 192" stroke="#000" stroke-linecap="round" stroke-width="12"><path d="M84 91.041V57a6 6 0 0 1 6-6h74a6 6 0 0 1 6 6v99a6 6 0 0 1-6 6H90a6 6 0 0 1-6-6v-22.384"/><path stroke-linejoin="round" d="M30 50.063h39.5M49.5 30v66"/><path d="M50 145v17"/><path stroke-width="14" d="m100 110-77 20m104-80V31"/><circle cx="124" cy="102" r="24"/></svg>
